resources/profiles/Snapmaker/Snapmaker A250_texture.svg

<?xml version="1.0" encoding="utf-8"?>
<svg viewBox="0 0 230 250" xmlns="http://www.w3.org/2000/svg" author="https://github.com/macdylan/3dp-configs">
  <path d="M168.42094,224.79203 C168.42294,223.62327 168.43974,221.73632 168.45714,220.59881 L168.48884,218.53062 L168.63679,218.0988 C168.98487,217.08285 169.643,216.32425 170.58369,215.85469 C171.67134,215.31177 173.06345,215.34372 174.11517,215.93579 C175.0314,216.45154 175.72328,217.37067 175.96583,218.3943 C176.04753,218.73913 176.05953,218.89978 176.04213,219.41703 C176.02413,219.95457 176.00363,220.08346 175.87721,220.45635 C175.44831,221.72142 174.44505,222.65911 173.16645,222.98995 C172.68934,223.11341 171.77907,223.10541 171.31841,222.97365 C170.85994,222.84258 170.50908,222.68447 170.18347,222.46222 C170.03716,222.36232 169.907,222.28063 169.89422,222.28063 C169.88142,222.28063 169.87092,223.32382 169.87092,224.59883 L169.87092,226.91703 L169.14365,226.91703 L168.41637,226.91703 L168.42094,224.79203 Z M172.78796,221.5784 C174.08032,221.30449 174.90097,219.99107 174.57228,218.72263 C174.36499,217.92266 173.80179,217.31484 173.01944,217.04676 C172.63102,216.91367 171.93891,216.90195 171.55279,217.02196 C170.57076,217.32707 169.91457,218.23865 169.917083,219.29426 C169.92109,220.81737 171.27917,221.89821 172.78796,221.57844 L172.78796,221.5784 Z M163.33918,223.09819 C162.48404,222.98045 161.77571,222.64068 161.17378,222.05952 C160.0889,221.01209 159.71202,219.47002 160.19128,218.03951 C160.39603,217.42841 160.63829,217.04845 161.13886,216.55334 C161.84018,215.85968 162.58544,215.52716 163.55274,215.47633 C164.40099,215.43173 165.15566,215.61983 165.78199,216.03189 L166.14366,216.26984 L166.14366,215.97359 L166.14366,215.67733 L166.35455,215.70623 C166.47054,215.72213 166.80805,215.73513 167.10456,215.73513 L167.64367,215.73513 L167.64367,219.39425 L167.64367,223.05336 L166.89367,223.05336 L166.14366,223.05336 L166.14366,222.67104 L166.14366,222.28871 L165.83684,222.49465 C165.44356,222.75863 165.14983,222.88743 164.68004,223.0019 C164.22059,223.11386 163.71609,223.15008 163.33918,223.0982 L163.33918,223.09819 Z M164.55492,221.51615 C164.9807,221.36768 165.19854,221.23417 165.48917,220.94354 C166.22123,220.21149 166.36992,219.09298 165.86236,218.13625 C165.49576,217.44523 164.60413,216.91802 163.80274,216.91844 C163.47832,216.91857 162.9819,217.03298 162.68989,217.17486 C162.37798,217.32639 161.87763,217.81702 161.7222,218.12375 C161.35397,218.85043 161.35378,219.71045 161.72174,220.4365 C161.97627,220.93879 162.64829,221.4421 163.24653,221.5785 C163.6111,221.6616 164.22118,221.6325 164.55497,221.5162 L164.55492,221.51615 Z M192.87387,223.0973 C191.27761,222.87752 189.99444,221.70254 189.61561,220.11376 C189.50558,219.65232 189.51621,218.85647 189.63891,218.37294 C189.95273,217.13599 190.86205,216.12098 192.04109,215.69159 C193.08606,215.31101 194.32065,215.41588 195.25689,215.96475 C195.64212,216.19059 195.90021,216.39762 196.24558,216.75788 L196.50704,217.03061 L196.5075,216.36015 L196.50797,215.68969 L196.84888,215.68969 L197.18979,215.68969 L197.18979,219.39426 L197.18979,223.09883 L196.84887,223.09883 L196.50796,223.09883 L196.50716,222.31474 L196.50636,221.53064 L196.29156,221.77774 C195.98194,222.13392 195.46746,222.52669 195.03922,222.73382 C194.40616,223.04002 193.52893,223.18735 192.87494,223.0973 L192.87387,223.0973 Z M194.31815,222.26885 C196.02379,221.66447 196.91035,219.79503 196.28073,218.13045 C195.86144,217.02188 194.74087,216.2251 193.50747,216.15853 C192.93669,216.12773 192.51613,216.21813 191.96541,216.49004 C191.23771,216.84932 190.60695,217.57274 190.36452,218.32607 C190.22979,218.74472 190.19979,219.4828 190.29932,219.93016 C190.55279,221.06946 191.51233,222.06724 192.62312,222.34659 C193.05868,222.45612 193.89832,222.41759 194.31814,222.26889 L194.31815,222.26885 Z M211.91653,223.10641 C211.85493,223.08581 211.85653,219.12504 211.91853,218.74491 C212.20186,216.99894 213.6247,215.61777 215.28242,215.47952 L215.64422,215.44942 L215.64469,215.62641 C215.64515,215.72381 215.65779,215.88011 215.67339,215.97385 L215.70159,216.14431 L215.52519,216.14501 C215.20959,216.14701 214.71959,216.2752 214.38198,216.44548 C213.7364,216.77107 213.03462,217.49365 212.82397,218.04967 C212.61375,218.60455 212.59877,218.80155 212.59877,221.01086 C212.59877,222.15923 212.58347,223.09974 212.56467,223.10088 C212.33235,223.11498 211.95215,223.11828 211.91679,223.10688 L211.91653,223.10641 Z M146.5299,223.03191 C145.80079,222.91564 144.59807,222.51222 144.59807,222.38393 C144.59807,222.29153 145.00142,221.36662 145.08116,221.27616 C145.13956,221.20986 145.17766,221.21496 145.50837,221.33196 C145.98616,221.50103 146.97706,221.64401 147.66627,221.64332 C148.56086,221.64252 149.14749,221.4659 149.4804,221.09741 C149.66772,220.89007 149.68702,220.74215 149.5516,220.5519 C149.36065,220.28374 148.95702,220.16064 147.68905,219.98382 C146.42617,219.80773 145.58579,219.48288 145.02606,218.95445 C144.60665,218.55849 144.42542,218.04727 144.51154,217.50308 C144.65889,216.57212 145.40198,215.90541 146.6667,215.56947 C147.077,215.46048 147.20207,215.44853 147.96178,215.44567 C148.58937,215.44367 148.918,215.46357 149.25724,215.52527 C149.97996,215.65677 150.91634,215.97971 150.91634,216.09746 C150.91634,216.20901 150.44234,217.28074 150.39301,217.28074 C150.36191,217.28074 150.26064,217.24904 150.16789,217.21034 C149.88972,217.09412 149.20421,216.96748 148.55878,216.91309 C147.89458,216.85719 147.1724,216.90509 146.7391,217.03364 C146.28051,217.16983 146.04905,217.51162 146.20769,217.81839 C146.38396,218.15927 146.88019,218.35613 148.06529,218.55536 C149.12989,218.73433 149.45695,218.80964 149.83145,218.96204 C150.27125,219.14101 150.54575,219.31307 150.78756,219.56134 C151.48935,220.28184 151.43593,221.34525 150.65915,222.11787 C150.25285,222.52198 149.48036,222.89431 148.7646,223.03099 C148.32564,223.11479 147.05276,223.11539 146.52995,223.03179 L146.5299,223.03191 Z M151.84815,221.17843 C151.87955,218.72264 151.88195,218.6903 152.07393,218.11657 C152.56638,216.6449 153.55363,215.79874 155.09272,215.5292 C157.01659,215.19227 158.78722,216.32664 159.34572,218.25392 L159.4618,218.65449 L159.4618,220.8767 L159.4618,223.0989 L158.75725,223.0989 L158.0527,223.0989 L158.0519,221.01934 C158.0511,218.98748 158.0489,218.93294 157.9491,218.64169 C157.5981,217.6121 156.66615,216.91704 155.63665,216.91704 C154.989,216.91704 154.56478,217.08546 154.10828,217.52381 C153.7026,217.91336 153.49377,218.2458 153.37256,218.69499 C153.27255,219.06562 153.27137,219.10295 153.29646,221.0852 L153.32196,223.0989 L152.57295,223.0989 L151.82394,223.0989 L151.84815,221.17843 Z M177.35415,220.58751 C177.38085,217.93955 177.39275,217.78357 177.60664,217.2841 C177.74711,216.95607 178.083,216.48558 178.35263,216.23916 C178.87935,215.75776 179.5021,215.51376 180.30295,215.475 C180.89482,215.4464 181.31902,215.5404 181.846,215.81717 C182.22295,216.01514 182.73001,216.47572 182.95275,216.82248 C183.08644,217.03062 183.11882,217.05771 183.16146,216.99713 C183.65603,216.29466 183.95243,216.02361 184.51356,215.7606 C186.14307,214.99684 188.07929,215.7656 188.64718,217.40179 C188.86261,218.02247 188.87109,218.14701 188.87109,220.69276 L188.87109,223.09893 L188.50745,223.09893 L188.1438,223.09893 L188.1438,220.60713 C188.1438,217.88491 188.1458,217.91666 187.87075,217.37159 C187.42685,216.49408 186.344,215.99439 185.34302,216.20514 C184.51532,216.37941 183.92171,216.90576 183.59465,217.75542 L183.47119,218.07613 L183.45379,220.53969 C183.44379,221.89464 183.41999,223.01965 183.39989,223.0397 C183.37989,223.0597 183.22708,223.0762 183.06039,223.0762 L182.75734,223.0762 L182.73454,220.53072 C182.71234,218.04585 182.70944,217.97894 182.61166,217.72014 C182.45856,217.31487 182.31001,217.09102 182.00954,216.81283 C181.25536,216.1146 180.19739,215.95278 179.31319,216.40042 C179.01916,216.54928 178.47925,217.0886 178.31477,217.39774 C178.05785,217.88064 178.05269,217.94441 178.05269,220.63119 L178.05269,223.09893 L177.6907,223.09893 L177.32872,223.09893 L177.35415,220.58751 Z M198.32569,217.34886 L198.32569,211.59882 L198.6666,211.59882 L199.00751,211.59882 L199.00751,215.43976 C199.00751,217.55227 199.02291,219.28004 199.04161,219.27924 C199.06041,219.27854 199.94502,218.41975 201.00752,217.37104 L202.93935,215.46431 L203.43936,215.46631 L203.93937,215.46831 L202.00753,217.37597 L200.0757,219.28362 L201.98271,221.16217 L203.88972,223.04072 L203.4478,223.07322 L203.00587,223.10572 L202.76807,222.9001 C202.63728,222.78701 201.8759,222.03952 201.07612,221.239 L199.62197,219.78353 L199.33747,220.0655 L199.05297,220.34748 L199.05297,221.00788 C199.05297,221.37111 199.03947,221.99045 199.02317,222.3842 L198.99347,223.10012 L198.65967,223.10012 L198.32587,223.10012 L198.32587,217.35008 L198.32569,217.34886 Z M206.66665,223.03327 C206.22994,222.93083 205.87173,222.79139 205.5418,222.59538 C204.68428,222.08594 204.14348,221.41418 203.82045,220.45721 C203.55022,219.65666 203.59034,218.64088 203.92387,217.83886 C204.3722,216.7608 205.37024,215.87757 206.48483,215.57254 C206.88874,215.46199 207.72275,215.43708 208.17304,215.52214 C209.04453,215.6867 209.85139,216.15763 210.40084,216.82243 C210.6319,217.102 210.96117,217.66459 210.91572,217.70216 C210.90382,217.71216 210.59736,217.88999 210.23486,218.09758 C209.60685,218.45722 208.07962,219.33638 205.97347,220.5507 C205.41454,220.87294 205.00756,221.13542 205.00756,221.17364 C205.00756,221.20994 205.15585,221.3872 205.3371,221.5675 C205.90174,222.12916 206.55566,222.38775 207.41666,222.38987 C208.66422,222.39287 209.70206,221.77539 210.20411,220.73127 C210.31725,220.49598 210.44342,220.18074 210.4845,220.03074 L210.5592,219.75801 L210.92495,219.56512 L211.29071,219.37224 L211.26001,219.63331 C211.20421,220.10777 211.09359,220.47963 210.87117,220.93983 C210.39618,221.92269 209.53614,222.65095 208.47327,222.97033 C208.06986,223.09154 207.06435,223.1266 206.66663,223.03333 L206.66665,223.03327 Z M205.67174,219.91058 C206.24395,219.58202 207.26438,218.99536 207.93938,218.6069 C208.61439,218.21842 209.33796,217.80357 209.54732,217.68499 C209.75668,217.56641 209.94746,217.4499 209.97127,217.42608 C210.02677,217.37058 209.40216,216.81582 209.0296,216.5895 C208.16021,216.06137 207.01721,216.00078 206.11657,216.43507 C205.31654,216.82084 204.72879,217.5119 204.45341,218.39054 C204.33861,218.75687 204.29691,219.46595 204.36851,219.83475 C204.41991,220.09941 204.56787,220.50797 204.61237,220.50797 C204.62287,220.50797 205.09955,220.23915 205.67175,219.91058 L205.67174,219.91058 Z" id="path24" style="fill: rgb(209, 209, 211);"/>
</svg>

<svg xmlns="http://www.w3.org/2000/svg" viewBox="0 0 230 250"><path d="M168.42 224.792c.003-1.169.02-3.056.037-4.193l.032-2.068.148-.432c.348-1.016 1.006-1.775 1.947-2.244 1.087-.543 2.48-.511 3.531.08a3.9 3.9 0 0 1 1.85 2.46c.083.344.095.505.077 1.022-.018.538-.038.666-.165 1.04a3.87 3.87 0 0 1-2.71 2.533c-.478.123-1.388.115-1.849-.016a3.8 3.8 0 0 1-1.135-.512 2.5 2.5 0 0 0-.289-.181c-.013 0-.023 1.043-.023 2.318v2.318h-1.455zm4.368-3.214c1.292-.274 2.113-1.587 1.784-2.855a2.37 2.37 0 0 0-1.553-1.676c-.388-.133-1.08-.145-1.466-.025-.982.305-1.638 1.217-1.636 2.272.004 1.523 1.362 2.604 2.871 2.284m-9.449 1.52c-.855-.118-1.563-.457-2.165-1.038a3.85 3.85 0 0 1-.983-4.02c.205-.612.447-.992.948-1.487.701-.693 1.446-1.026 2.414-1.077.848-.044 1.603.144 2.229.556l.362.238v-.593l.21.03c.117.015.454.028.75.028h.54v7.318h-1.5v-.764l-.307.206a3.2 3.2 0 0 1-1.157.507c-.46.112-.964.148-1.34.096m1.216-1.582c.426-.148.644-.282.934-.572.732-.733.88-1.851.373-2.808-.366-.69-1.258-1.218-2.06-1.218-.324 0-.82.115-1.112.257-.312.151-.812.642-.968.949a2.56 2.56 0 0 0 0 2.313c.254.502.926 1.005 1.525 1.141.364.084.974.054 1.308-.062m28.319 1.581c-1.596-.22-2.88-1.394-3.258-2.983-.11-.462-.1-1.258.023-1.741a3.87 3.87 0 0 1 2.402-2.681c1.045-.381 2.28-.276 3.216.273.385.226.643.433.989.793l.261.273v-.67l.001-.671h.682v7.409h-.682v-.784l-.002-.784-.214.247a4.4 4.4 0 0 1-1.253.956c-.633.306-1.51.453-2.164.363zm1.444-.828c1.706-.605 2.592-2.474 1.963-4.139-.42-1.108-1.54-1.905-2.774-1.971-.57-.031-.99.06-1.542.331-.727.36-1.358 1.083-1.6 1.836-.135.419-.165 1.157-.066 1.604.254 1.14 1.213 2.137 2.324 2.417.436.11 1.275.07 1.695-.078m17.599.837c-.062-.02-.06-3.981.002-4.361.283-1.746 1.706-3.127 3.363-3.265l.362-.03v.176c.001.098.014.254.03.348l.028.17-.177.001c-.315.002-.805.13-1.143.3-.646.326-1.347 1.049-1.558 1.605-.21.555-.225.752-.225 2.96 0 1.15-.016 2.09-.034 2.09a6 6 0 0 1-.648.007m-65.387-.074c-.73-.116-1.932-.52-1.932-.648 0-.092.403-1.017.483-1.108.059-.066.097-.061.427.056.478.169 1.47.312 2.158.311.895 0 1.481-.177 1.814-.546.188-.207.207-.355.072-.545-.191-.268-.595-.391-1.863-.568-1.263-.176-2.103-.501-2.663-1.03-.42-.396-.6-.907-.514-1.45.147-.932.89-1.599 2.155-1.935.41-.109.535-.12 1.295-.123.627-.002.956.018 1.295.08.723.13 1.66.454 1.66.571 0 .112-.475 1.184-.524 1.184a1 1 0 0 1-.225-.07c-.278-.117-.964-.244-1.61-.298-.663-.056-1.386-.008-1.819.12-.458.137-.69.479-.531.785.176.341.672.538 1.857.737 1.065.18 1.392.255 1.766.407.44.179.715.351.957.6.701.72.648 1.783-.129 2.556-.406.404-1.179.776-1.894.913-.44.084-1.712.084-2.235 0m5.318-1.854c.032-2.455.034-2.488.226-3.061.492-1.472 1.48-2.318 3.019-2.588 1.924-.337 3.694.798 4.253 2.725l.116.4v4.445h-1.409l-.001-2.08c0-2.032-.003-2.086-.103-2.377-.35-1.03-1.283-1.725-2.312-1.725-.648 0-1.072.168-1.529.607-.405.39-.614.722-.735 1.171-.1.37-.102.408-.077 2.39l.026 2.014h-1.498zm25.506-.59c.027-2.648.039-2.804.253-3.304a3.6 3.6 0 0 1 .746-1.045c.526-.481 1.15-.725 1.95-.764a2.73 2.73 0 0 1 1.543.342c.377.198.884.659 1.107 1.005.133.209.166.236.208.175.495-.702.791-.973 1.353-1.236 1.63-.764 3.565.005 4.133 1.64.216.621.224.746.224 3.292v2.406h-.727v-2.492c0-2.722.002-2.69-.273-3.235-.444-.878-1.527-1.378-2.528-1.167-.828.174-1.421.7-1.748 1.55l-.124.321-.017 2.464c-.01 1.355-.034 2.48-.054 2.5s-.173.036-.34.036h-.303l-.022-2.545c-.023-2.485-.026-2.552-.123-2.81-.153-.406-.302-.63-.602-.908-.755-.698-1.813-.86-2.697-.413-.294.15-.834.689-.998.998-.257.483-.262.546-.262 3.233v2.468h-.724zm20.972-3.24v-5.75h.682v3.842c0 2.112.015 3.84.034 3.84.018-.001.903-.86 1.966-1.909l1.931-1.907.5.002.5.002-1.931 1.908-1.932 1.908 1.907 1.878 1.907 1.879-.442.032-.442.033-.238-.206c-.13-.113-.892-.86-1.692-1.661l-1.454-1.455-.285.281-.284.282v.66c0 .364-.014.983-.03 1.377l-.03.716h-.667v-5.751m8.34 5.685a3.9 3.9 0 0 1-1.124-.438c-.858-.51-1.399-1.18-1.722-2.138-.27-.8-.23-1.816.104-2.618.448-1.078 1.446-1.961 2.56-2.266.405-.111 1.239-.136 1.689-.05a3.84 3.84 0 0 1 2.228 1.3c.23.279.56.842.515.88-.012.01-.319.187-.681.395-.628.36-2.155 1.238-4.262 2.453-.558.322-.965.584-.965.623 0 .036.148.213.33.393.564.562 1.218.82 2.079.823 1.247.003 2.285-.615 2.787-1.659.113-.235.24-.55.28-.7l.075-.273.366-.193.366-.193-.031.261a3.8 3.8 0 0 1-.389 1.307 3.88 3.88 0 0 1-2.398 2.03c-.403.122-1.409.157-1.806.063m-.994-3.122 2.267-1.304c.675-.389 1.399-.803 1.608-.922s.4-.235.424-.259c.056-.055-.569-.61-.941-.837-.87-.528-2.013-.588-2.913-.154-.8.386-1.388 1.077-1.664 1.956-.114.366-.156 1.075-.084 1.444.05.264.199.673.243.673.01 0 .488-.269 1.06-.597" style="fill:#d1d1d3"/></svg>
